**harm	**harte	**silbe	**rhyme	**timestamp	**phrase	**leadinstrument	**kern
*M3/4	*M3/4	*	*	*	*	*	*
*	*	*	*	*	*	*	*
*	*	*	*	*	*	*	*
*A-:	*A-:	*	*	*	*	*	*A-:
2.r;	N	.	.	0	.	r	2.r;
=1	=1	=1	=1	=1	=1	=1	=1
*>Letter>A	*>Letter>A	*>Letter>A	*>Letter>A	*>Letter>A	*>Letter>A	*>Letter>A	*>Letter>A
*>Label>Intro	*>Label>Intro	*>Label>Intro	*>Label>Intro	*>Label>Intro	*>Label>Intro	*>Label>Intro	*>Label>Intro
*	*	*	*	*	*	*	*
*	*	*	*	*	*	*	*
2.Ic	A-:maj/5	.	.	0.441	newline	r	2.a- 2.cc 2.E-
=2	=2	=2	=2	=2	=2	=2	=2
2.V7	E-:7	.	.	3.411	.	r	2.E- 2.g 2.b- 2.dd-
=3	=3	=3	=3	=3	=3	=3	=3
2.Ic	A-:maj/5	.	.	6.38	.	r	2.a- 2.cc 2.E-
=4	=4	=4	=4	=4	=4	=4	=4
2.Ic	A-:maj/5	.	.	9.35	.	r	2.a- 2.cc 2.E-
=5	=5	=5	=5	=5	=5	=5	=5
*>Letter>B	*>Letter>B	*>Letter>B	*>Letter>B	*>Letter>B	*>Letter>B	*>Letter>B	*>Letter>B
*>Label>Verse	*>Label>Verse	*>Label>Verse	*>Label>Verse	*>Label>Verse	*>Label>Verse	*>Label>Verse	*>Label>Verse
2.I	A-:maj	Si-	.	12.32	newline	voice	2.A- 2.cc 2.ee-
.	.	_	.	.	.	.	.
.	.	-lent	.	.	.	.	.
=6	=6	=6	=6	=6	=6	=6	=6
2.I	A-:maj	night	A	15.009	.	voice	2.A- 2.cc 2.ee-
=7	=7	=7	=7	=7	=7	=7	=7
2.I	A-:maj	ho-	.	17.698	.	voice	2.A- 2.cc 2.ee-
.	.	_	.	.	.	.	.
.	.	-ly	.	.	.	.	.
=8	=8	=8	=8	=8	=8	=8	=8
2.I	A-:maj	night	A	20.388	.	voice	2.A- 2.cc 2.ee-
=9	=9	=9	=9	=9	=9	=9	=9
2.V	E-:sus4	all	.	23.077	newline	voice	2.E- 2.g 2.b-
.	.	_	.	.	.	.	.
.	.	is	.	.	.	.	.
=10	=10	=10	=10	=10	=10	=10	=10
2.V	E-:maj	calm	.	25.748	.	voice	2.E- 2.g 2.b-
=11	=11	=11	=11	=11	=11	=11	=11
2.I	A-:maj	all	.	28.42	.	voice	2.A- 2.cc 2.ee-
.	.	_	.	.	.	.	.
.	.	is	.	.	.	.	.
=12	=12	=12	=12	=12	=12	=12	=12
2.I	A-:maj	bright	A	31.091	.	voice	2.A- 2.cc 2.ee-
=13	=13	=13	=13	=13	=13	=13	=13
2.IV	D-:maj	round	.	33.762	newline	voice	2.D- 2.f 2.a-
.	.	_	.	.	.	.	.
.	.	yon	.	.	.	.	.
=14	=14	=14	=14	=14	=14	=14	=14
2.IV	D-:maj	vir-	.	36.446	.	voice	2.D- 2.f 2.a-
.	.	_	.	.	.	.	.
.	.	-gin	.	.	.	.	.
=15	=15	=15	=15	=15	=15	=15	=15
2.I	A-:maj	.	.	39.129	.	voice	2.A- 2.cc 2.ee-
.	.	mo-	.	.	.	.	.
.	.	-ther	.	.	.	.	.
.	.	and	.	.	.	.	.
=16	=16	=16	=16	=16	=16	=16	=16
2.I	A-:maj	child	B	41.812	.	voice	2.A- 2.cc 2.ee-
=17	=17	=17	=17	=17	=17	=17	=17
2.IV	D-:maj	.	.	44.495	newline	voice	2.D- 2.f 2.a-
.	.	ho-	.	.	.	.	.
.	.	-ly	.	.	.	.	.
=18	=18	=18	=18	=18	=18	=18	=18
2.IV	D-:maj	in-	.	47.303	.	voice	2.D- 2.f 2.a-
.	.	-fant	.	.	.	.	.
.	.	.	.	.	.	.	.
=19	=19	=19	=19	=19	=19	=19	=19
2.I	A-:maj	.	.	50.111	.	voice	2.A- 2.cc 2.ee-
.	.	so	.	.	.	.	.
.	.	ten-	.	.	.	.	.
.	.	_	.	.	.	.	.
.	.	-der	.	.	.	.	.
.	.	and	.	.	.	.	.
=20	=20	=20	=20	=20	=20	=20	=20
2.I	A-:maj	mild	B	52.919	.	voice	2.A- 2.cc 2.ee-
=21	=21	=21	=21	=21	=21	=21	=21
2.V7	E-:7	sleep	.	55.728	newline	voice	2.E- 2.g 2.b- 2.dd-
.	.	in	.	.	.	.	.
=22	=22	=22	=22	=22	=22	=22	=22
2.V7	E-:7	hea-	.	58.518	.	voice	2.E- 2.g 2.b- 2.dd-
.	.	-ven-	.	.	.	.	.
.	.	-ly	.	.	.	.	.
=23	=23	=23	=23	=23	=23	=23	=23
2.I	A-:maj	peace	.	61.308	.	voice	2.A- 2.cc 2.ee-
=24	=24	=24	=24	=24	=24	=24	=24
2.I	A-:maj	_	.	64.098	.	voice	2.A- 2.cc 2.ee-
=25	=25	=25	=25	=25	=25	=25	=25
2.I	A-:maj	sleep	.	66.888	newline	voice	2.A- 2.cc 2.ee-
.	.	_	.	.	.	.	.
.	.	.	.	.	.	.	.
.	.	in	.	.	.	.	.
=26	=26	=26	=26	=26	=26	=26	=26
2.V	E-:maj	hea-	.	69.742	.	voice	2.E- 2.g 2.b-
.	.	-ven-	.	.	.	.	.
.	.	-ly	.	.	.	.	.
=27	=27	=27	=27	=27	=27	=27	=27
2.I	A-:maj	peace	.	72.597	.	voice	2.A- 2.cc 2.ee-
=28	=28	=28	=28	=28	=28	=28	=28
2.I	A-:maj	_	.	75.451	.	voice	2.A- 2.cc 2.ee-
.	.	.	.	.	.	.	.
=29	=29	=29	=29	=29	=29	=29	=29
*>Letter>B	*>Letter>B	*>Letter>B	*>Letter>B	*>Letter>B	*>Letter>B	*>Letter>B	*>Letter>B
*>Label>Verse	*>Label>Verse	*>Label>Verse	*>Label>Verse	*>Label>Verse	*>Label>Verse	*>Label>Verse	*>Label>Verse
2.I	A-:maj	Si-	.	78.306	newline	voice	2.A- 2.cc 2.ee-
.	.	_	.	.	.	.	.
.	.	-lent	.	.	.	.	.
=30	=30	=30	=30	=30	=30	=30	=30
2.I7	A-:maj7	night	A	81.386	.	voice	2.A- 2.cc 2.ee- 2.gg
=31	=31	=31	=31	=31	=31	=31	=31
2.I	A-:maj(9)	ho-	.	84.467	.	voice	2.A- 2.cc 2.ee-
.	.	_	.	.	.	.	.
.	.	-ly	.	.	.	.	.
=32	=32	=32	=32	=32	=32	=32	=32
2.I7	A-:maj7	night	A	87.547	.	voice	2.A- 2.cc 2.ee- 2.gg
=33	=33	=33	=33	=33	=33	=33	=33
2.V7	E-:7	all	.	90.628	newline	voice	2.E- 2.g 2.b- 2.dd-
.	.	_	.	.	.	.	.
.	.	is	.	.	.	.	.
=34	=34	=34	=34	=34	=34	=34	=34
2.V7	E-:7	calm	.	93.796	.	voice	2.E- 2.g 2.b- 2.dd-
=35	=35	=35	=35	=35	=35	=35	=35
2.I	A-:maj	all	.	96.963	.	voice	2.A- 2.cc 2.ee-
.	.	_	.	.	.	.	.
.	.	is	.	.	.	.	.
=36	=36	=36	=36	=36	=36	=36	=36
2I7	A-:maj7	bright	A	100.131	.	voice	2.A- 2.cc 2.ee- 2.gg
4Im7	A-:7	.	.	102.243	.	voice	4A- 4cc 4ee- 4gg
=37	=37	=37	=37	=37	=37	=37	=37
2.IV	D-:maj	.	.	103.299	newline	voice	2.D- 2.f 2.a-
.	.	round	.	.	.	.	.
.	.	yon	.	.	.	.	.
=38	=38	=38	=38	=38	=38	=38	=38
4IV7	D-:maj7	vir-	.	106.433	.	voice	4.D- 4.f 4.a- 4.cc
4IV	D-:maj6	.	.	107.478	.	voice	8D- 8f 8a-
.	.	_	.	.	.	.	.
4IVm7	D-:7	-gin	.	108.523	.	voice	4D- 4f 4a- 4cc
=39	=39	=39	=39	=39	=39	=39	=39
2.I	A-:maj(9)	.	.	109.567	.	voice	2.A- 2.cc 2.ee-
.	.	mo-	.	.	.	.	.
.	.	-ther	.	.	.	.	.
.	.	and	.	.	.	.	.
=40	=40	=40	=40	=40	=40	=40	=40
4I7	A-:maj7	child	B	112.702	.	voice	2.A- 2.cc 2.ee- 2.gg
2Im7	A-:7	.	.	114.791	.	voice	2A- 2cc 2ee- 2gg
=41	=41	=41	=41	=41	=41	=41	=41
2.IV	D-:maj	.	.	115.836	newline	voice	2.D- 2.f 2.a-
.	.	ho-	.	.	.	.	.
.	.	-ly	.	.	.	.	.
=42	=42	=42	=42	=42	=42	=42	=42
4IV7	D-:maj7	in-	.	119.055	.	voice	4.D- 4.f 4.a- 4.cc
4IV	D-:maj6	.	.	120.128	.	voice	8D- 8f 8a-
.	.	-fant	.	.	.	.	.
4IVm7	D-:7	.	.	121.201	.	voice	4D- 4f 4a- 4cc
.	.	so	.	.	.	.	.
=43	=43	=43	=43	=43	=43	=43	=43
2.I	A-:maj(9)	ten-	.	122.274	.	voice	2.A- 2.cc 2.ee-
.	.	-der	.	.	.	.	.
.	.	and	.	.	.	.	.
=44	=44	=44	=44	=44	=44	=44	=44
2.I	A-:maj	mild	B	125.493	.	voice	2.A- 2.cc 2.ee-
=45	=45	=45	=45	=45	=45	=45	=45
2.V7	E-:7	sleep	.	128.712	newline	voice	2.E- 2.g 2.b- 2.dd-
.	.	in	.	.	.	.	.
=46	=46	=46	=46	=46	=46	=46	=46
2.V7	E-:7	hea-	.	132.107	.	voice	2.E- 2.g 2.b- 2.dd-
.	.	-ven-	.	.	.	.	.
.	.	-ly	.	.	.	.	.
=47	=47	=47	=47	=47	=47	=47	=47
2.I	A-:maj	peace	.	135.503	.	voice	2.A- 2.cc 2.ee-
=48	=48	=48	=48	=48	=48	=48	=48
2.I	A-:maj	_	.	138.899	.	voice	2.A- 2.cc 2.ee-
=49	=49	=49	=49	=49	=49	=49	=49
2.I	A-:maj	sleep	.	142.294	newline	voice	2.A- 2.cc 2.ee-
.	.	_	.	.	.	.	.
.	.	.	.	.	.	.	.
.	.	in	.	.	.	.	.
=50	=50	=50	=50	=50	=50	=50	=50
2.V7	E-:7	hea-	.	145.732	.	voice	2.E- 2.g 2.b- 2.dd-
.	.	-ven-	.	.	.	.	.
.	.	-ly	.	.	.	.	.
=51	=51	=51	=51	=51	=51	=51	=51
2.I	A-:maj	peace	.	149.169	.	voice	2.A- 2.cc 2.ee-
=52	=52	=52	=52	=52	=52	=52	=52
2.I	A-:maj	_	.	152.607	.	voice	2.A- 2.cc 2.ee-
.	.	.	.	.	.	.	.
1r;	N	.	.	160.055	.	r	1r;
1r;	N	.	.	161.907	.	r	1r;
*-	*-	*-	*-	*-	*-	*-	*-
!!!BillboardChartDate: 1960/12/19
!!!BillboardPeak: 54
!!!BillboardWeeksOnChart: 2
!!!COC: Bing Crosby
!!!ENC: Nathaniel Condit-Schultz
!!!EST: Awating manual error checking and editing.
!!!OTL: Silent Night
!!!RDF**harte: Chris Harte's syntax, used by MIREX
!!!RDF**harmony: **recip + pitch class of root + harmonic quality
!!!RDF**leadinstrument: original McGill primary instrumentation annotation
!!!RDF**phrase: newline = linebreak in original McGill transcription
!!!RDF**timestamp: McGill audio timestamp in seconds
!!!RDT: 2017/01/12/
!!!SampleActualRank: 64
!!!SampleID#: 0123
!!!SampleTargetRank: 64
!!!MBID: 0a097307-48de-4301-804a-5a27b5d798d2
